!!!!SEGMENT: pl-kk--kk-i-328--007_constanzi--beatus-vir-paratum-cor-eius.krn
!!!cenid: 17xx:2145
!!!COM: Constanzi
!!!COM-rismID: pe50046616
!!!CDT:
!!!CNT:
!!!OPR: Beatus vir
!!!OTL: Paratum cor eius
!!!OMV: 007
!!!PDT:
!!!AGN: Sacred
!!!SMS-siglum: PL-Kk
!!!SMS-shelfmark: Kk.I.328
!!!SMS-shelfwork: 001-007 M
!!!SMS-variant:
!!!SMS-altvar:
!!!NIFC-rismSourceID: 1001145915
!!!NIFC-rismChildID: 1001145915
!!!NIFC-islandoraID: pl-kk:5487
!!!URL-pdf-islandora: https://repozytorium.nifc.pl/islandora/object/pl-kk%3A5487/datastream/PDF/view
!!!URL-scan: https://polish.musicsources.pl/pl/lokalizacje/galeria/rekopisy/5947 @EN{Scan on Polish Music Sources Website} @PL{Skany w portalu Dziedzictwo Muzyki Polskiej w otwartym dostępie}
!!!ONB-nifc: UWAGA: części Beatus vir: 1. Beatus vir, 2. Potens in terra, 3. Gloria et divitiae, 4. Exortum est 5. Iucundus homo, 6. In memoria, 7. Paratum cor eius, 8. Peccator videbit, 9. Gloria patri
!!!AIN: 2 alto 1 bass 1 organ 1 tenor 2 vox
!!!key:
**kern	**fba	**kern	**text	**kern	**text	**kern	**text	**kern	**text	**kern	**kern
*part7	*part7	*part6	*part6	*part5	*part5	*part4	*part4	*part3	*part3	*part2	*part1
*staff7	*	*staff6	*staff6	*staff5	*staff5	*staff4	*staff4	*staff3	*staff3	*staff2	*staff1
*Iorgan	*	*Ibass	*	*Itenor	*	*Ialto	*	*Ivox	*	*Ialto	*Ivox
*I"Organo	*	*I"Basso di ripieno	*	*I"Tenore di ripieno	*	*I"Alto di ripieno	*	*I"Canto di ripieno	*	*I"Alto	*I"Canto
*I'Org.	*	*I'B. rip.	*	*I'T. rip.	*	*I'A. rip.	*	*I'C.rip.	*	*I'A.	*I'C.
*clefF4	*	*clefF4	*	*clefC4	*	*clefC3	*	*clefC1	*	*clefC3	*clefC1
*k[f#]	*	*k[f#]	*	*k[f#]	*	*k[f#]	*	*k[f#]	*	*k[f#]	*k[f#]
*G:	*	*G:	*	*G:	*	*G:	*	*G:	*	*G:	*G:
*M2/1	*	*M2/1	*	*M2/1	*	*M2/1	*	*M2/1	*	*M2/1	*M2/1
=1	=1	=1	=1	=1	=1	=1	=1	=1	=1	=1	=1
!	!	!LO:TX:a:t=Tutti	!	!	!	!LO:TX:rj:a:t=Tutti Alto	!	!	!	!	!
!	!	!LO:TX:a:t=All(egr)o	!	!LO:TX:t=P:problem=all\right&colon; global	!	!	!	!LO:TX:t=P:problem=all\right&colon; global	!	!	!LO:TX:t=P:problem=W partii organów brakuje taktów, wg mnie 17-22.
!LO:TX:t=P:problem=all\right&colon; global	!	!LO:TX:t=P:problem=all\right&colon; global	!	!LO:TX:a:t=Tutti	!	!LO:TX:t=P:problem=all\right&colon; global	!	!LO:TX:a:t=All(egr)o	!	!LO:TX:a:t=Paratum cor eius Tacet	!LO:TX:a:t=Paratum cor eius Tacet
1GG/	.	1G\	Pa-	0d\	Pa-	4g\	Pa-	1b\	Pa-	0ryy	0ryy
.	.	.	.	.	.	4a\	.	.	.	.	.
.	.	.	.	.	.	4b\	.	.	.	.	.
.	.	.	.	.	.	4a\	.	.	.	.	.
*	*	*	*	*	*	*2\right	*	*	*	*	*
4GG/	.	(4G\	-ra-	.	.	2g\	-ra-	(4b\	-ra-	.	.
4AA/	.	4A\)	.	.	.	.	.	4cc\)	.	.	.
4BB/	.	4B\	-tu(m)	.	.	4d\	-tu(m)	4dd\	-tu(m)	.	.
4AA/	.	4A\	cor	.	.	4f#\	cor	4cc\	cor	.	.
=2	=2	=2	=2	=2	=2	=2	=2	=2	=2	=2	=2
*	*	*2\right	*	*	*	*	*	*2\right	*	*	*
1GG/	.	2G\	e-	4d\	-ra-	2g\	e-	2b\	e-	0ryy	0ryy
.	.	.	.	4g\	.	.	.	.	.	.	.
.	.	2GG/	-ius	4f#\	.	2g\	-ius	2b\	-ius	.	.
.	.	.	.	4e\	.	.	.	.	.	.	.
*	*	*	*	*2\right	*	*	*	*	*	*	*
1G\	.	1G\	pa-	2d\	-tum	1g\	pa-	1b\	pa-	.	.
.	.	.	.	2d\	pa-	.	.	.	.	.	.
!	!	!	!	!	!	!LO:LB:g=original	!	!	!	!	!
=3	=3	=3	=3	=3	=3	=3	=3	=3	=3	=3	=3
*2\right	*	*	*	*	*	*	*	*	*	*	*
2d\	.	2d\	-ra-	1d\	-ra-	2f#\	-ra-	(2a\	-ra-	0ryy	0ryy
2B\	.	2B\	.	.	.	1g\	-tu(m)	2dd\)	.	.	.
!	!	!LO:LB:g=original	!	!	!	!	!	!LO:LB:g=original	!	!	!
2c\	.	2c\	-tu(m)	2e\	-tu(m)	.	.	2cc\	-tu(m)	.	.
2d\	.	2d\	cor	2d\	cor	2f#\	cor	2a\	cor	.	.
!LO:LB:g=original	!	!	!	!LO:LB:g=original	!	!	!	!	!	!	!
=4	=4	=4	=4	=4	=4	=4	=4	=4	=4	=4	=4
4B\	.	(4B\	e-	(4d\	e-	2g\	e-	2b\	e-	0ryy	0ryy
4A\	.	4A\)	.	4c\)	.	.	.	.	.	.	.
2G\	.	2G\	-ius	2B\	-ius	2g\	-ius	2b\	-ius	.	.
1G\	.	1G\	spe-	1c\	spe-	1g\	spe-	1b\	spe-	.	.
=5	=5	=5	=5	=5	=5	=5	=5	=5	=5	=5	=5
1d\	.	1d\	-ra-	2c\	-ra-	1f#\	-ra-	0a\	-ra-	0ryy	0ryy
.	.	.	.	2A\	-re	.	.	.	.	.	.
!	!	!	!	!LO:TX:b:t=2	!	!	!	!	!	!	!
2c#X\	.	2c#X\	.	0r	.	2e\	.	.	.	.	.
2cn\	.	2cn\	.	.	.	2f#\	.	.	.	.	.
!	!	!LO:LB:g=original	!	!	!	!	!	!	!	!	!
=6	=6	=6	=6	=6	=6	=6	=6	=6	=6	=6	=6
4B\	.	4B\	.	.	.	4g\	.	4b\	.	0ryy	0ryy
4A\	.	4A\	.	.	.	4a\	.	4cc\	.	.	.
2G\	.	2G\	-re	.	.	2b\	-re	2dd\	-re	.	.
!	!	!	!	!	!	!LO:LB:g=original	!	!	!	!	!
*	*below	*	*	*	*	*	*	*	*	*	*
1B\	#3	1B\	spe-	1d#X\	spe-	1f#\	spe-	1b\	spe-	.	.
!	!	!	!	!	!	!	!	!LO:LB:g=original	!	!	!
=7	=7	=7	=7	=7	=7	=7	=7	=7	=7	=7	=7
1e\	.	1e\	-ra-	2e\	-ra-	1g#X\	-ra-	0b\	-ra-	0ryy	0ryy
.	.	.	.	2B\	-re	.	.	.	.	.	.
!LO:LB:g=original	!	!	!	!LO:LB:g=original	!	!	!	!	!	!	!
!	!	!	!	!LO:TX:b:t=2	!	!	!	!	!	!	!
2d#X\	.	2d#X\	-re	0r	.	2f#\	-re	.	.	.	.
2dn\	.	2dn\	in	.	.	2g#X\	in	.	.	.	.
=8	=8	=8	=8	=8	=8	=8	=8	=8	=8	=8	=8
4c#X\	.	4c#X\	do-	.	.	4a\	do-	4cc#X\	.	0ryy	0ryy
4B\	.	4B\	-mi-	.	.	4b\	-mi-	4dd\	.	.	.
2A\	.	2A\	-no	.	.	2cc#X\	-no	2ee\	-re	.	.
!	!	!LO:LB:g=original	!	!	!	!	!	!	!	!	!
1A\	#3	1A\	spe-	1c#X\	spe-	1e\	spe-	1a\	spe-	.	.
=9	=9	=9	=9	=9	=9	=9	=9	=9	=9	=9	=9
2d\	.	2d\	-ra-	2d\	-ra-	2f#\	-ra-	[0a\	-ra-	0ryy	0ryy
1A\	.	1A\	.	1c#X\	.	1e\	.	.	.	.	.
2c#X\	.	2c#X\	.	2e\	.	2a\	.	.	.	.	.
!	!	!	!	!	!	!LO:LB:g=original	!	!	!	!	!
=10	=10	=10	=10	=10	=10	=10	=10	=10	=10	=10	=10
2d\	.	2d\	.	2d\	.	2f#\	.	0a\]	.	0ryy	0ryy
1A\	.	1A\	.	1c#X\	.	1e\	.	.	.	.	.
4B\	.	4B\	.	2e\	-re	2a\	.	.	.	.	.
4c#X\	.	4c#X\	.	.	.	.	.	.	.	.	.
!LO:LB:g=original	!	!	!	!	!	!	!	!	!	!	!
!	!	!	!	!LO:LB:g=original	!	!	!	!	!	!	!
=11	=11	=11	=11	=11	=11	=11	=11	=11	=11	=11	=11
2d\	.	2d\	-re	1d\	in	2f#\	-re	2a\	-re	0ryy	0ryy
2G\	.	2G\	in	.	.	2b\	in	2r	.	.	.
!	!	!LO:LB:g=original	!	!	!	!	!	!LO:TX:t=P:problem=kreska pseudotaktowa	!	!	!
!	!	!	!	!	!	!	!	!LO:TX:b:t=1	!	!	!
2A\	4	2.A\	do-	2d\	do-	2.e\	do-	1r	.	.	.
2AA/	#3	.	.	2c#X\	-mi-	.	.	.	.	.	.
.	.	4A\	-mi-	.	.	4e\	-mi-	.	.	.	.
!!linebreak:original
!	!	!	!	!	!	!	!	!LO:LB:g=original	!	!	!
=12	=12	=12	=12	=12	=12	=12	=12	=12	=12	=12	=12
!	!	!	!	!LO:TX:t=P:problem=kreska pseudotaktowa	!	!	!	!	!	!	!
4D\	.	1D\	-no	1d\	-no	2f#\	-no	0dd\	con-	0ryy	0ryy
4E\	.	.	.	.	.	.	.	.	.	.	.
4F#\	.	.	.	.	.	2a\	spe-	.	.	.	.
4E\	.	.	.	.	.	.	.	.	.	.	.
!	!	!LO:TX:b:t=1	!	!LO:TX:a:t=3	!	!	!	!	!	!	!
4D\	.	1r	.	0r	.	2f#\	-ra-	.	.	.	.
4C#X\	.	.	.	.	.	.	.	.	.	.	.
4BB\	.	.	.	.	.	2d\	-re	.	.	.	.
4AA\	.	.	.	.	.	.	.	.	.	.	.
!	!	!	!	!	!	!LO:LB:g=original	!	!	!	!	!
=13	=13	=13	=13	=13	=13	=13	=13	=13	=13	=13	=13
4D/	.	0d\	con-	.	.	2r	.	0dd\	-fir-	0ryy	0ryy
4C#X/	.	.	.	.	.	.	.	.	.	.	.
4BB/	.	.	.	.	.	2f#\	spe-	.	.	.	.
4C#/	.	.	.	.	.	.	.	.	.	.	.
4D/	.	.	.	1r	.	2d\	-ra-	.	.	.	.
4C#X/	.	.	.	.	.	.	.	.	.	.	.
4D/	.	.	.	.	.	2B\	-re	.	.	.	.
4BB/	.	.	.	.	.	.	.	.	.	.	.
!LO:LB:g=original	!	!LO:LB:g=original	!	!	!	!	!	!	!	!	!
=14	=14	=14	=14	=14	=14	=14	=14	=14	=14	=14	=14
*	*above	*	*	*	*	*	*	*	*	*	*
4E\	#3	0d\	-fir-	2r	.	0b\	in	0ee\	-ma-	0ryy	0ryy
4D\	.	.	.	.	.	.	.	.	.	.	.
4E\	.	.	.	2B\	spe-	.	.	.	.	.	.
4F#\	.	.	.	.	.	.	.	.	.	.	.
!	!	!	!	!LO:SIC:v:s=2G#	!	!	!	!	!	!	!
4G#X\	.	.	.	2G\	-ra-	.	.	.	.	.	.
4F#\	.	.	.	.	.	.	.	.	.	.	.
4G#\	.	.	.	2E/	-re	.	.	.	.	.	.
4E\	.	.	.	.	.	.	.	.	.	.	.
!	!	!	!	!LO:LB;g=original	!	!	!	!	!	!	!
=15	=15	=15	=15	=15	=15	=15	=15	=15	=15	=15	=15
*	*below	*	*	*	*	*	*	*	*	*	*
2A\	#3	1.c#X\	-ma-	2r	.	1.a\	do-	0ee\	-tum	0ryy	0ryy
2A\	.	.	.	2e\	spe-	.	.	.	.	.	.
2A\	.	.	.	2c#X\	-ra-	.	.	.	.	.	.
2A\	.	2c#\	-tum	2A\	-re	2a\	-mi-	.	.	.	.
=16	=16	=16	=16	=16	=16	=16	=16	=16	=16	=16	=16
!	!	!	!	!	!	!LO:TX:t=P:problem=kreska pseudotaaktowa	!	!	!	!	!
*	*above	*	*	*	*	*	*	*	*	*	*
2E\	#	2d\	est	2r	.	1a\	-no	2ff#\	est	0ryy	0ryy
2E\	.	2c#X\	cor	2A\	in	.	.	2ee\	cor	.	.
!	!	!	!	!	!	!LO:PB:g=original	!	!	!	!	!
!	!	!	!	!	!	!LO:TX:a:t=-	!	!	!	!	!
!	!	!	!	!	!	!LO:TX:b:t=1	!	!	!	!	!
2E\	.	2B\	e-	2A\	do-	1r	.	1dd\	e-	.	.
2E\	.	2E\	.	2G#X\	-mi-	.	.	.	.	.	.
!LO:LB:g=original	!	!	!	!	!	!	!	!	!	!	!
=17	=17	=17	=17	=17	=17	=17	=17	=17	=17	=17	=17
!LO:TX:t=P:pion:problem	!	!	!	!LO:TX:t=P:problem=kreska pseudotaktowa	!	!	!	!	!	!	!
0ryy	.	2A\	-ius	1A\	-no	0a\	con-	2cc\	-ius	0ryy	0ryy
.	.	2A\	non	.	.	.	.	2ee\	non	.	.
!	!	!	!	!LO:TX:b:t=1	!	!	!	!LO:LB:g=original	!	!	!
.	.	2A\	com-	1r	.	.	.	2ee\	com-	.	.
.	.	2A\	-mo-	.	.	.	.	2ee\	-mo-	.	.
!	!	!LO:PB:g=original	!	!LO:LB:g=original	!	!	!	!	!	!	!
=18	=18	=18	=18	=18	=18	=18	=18	=18	=18	=18	=18
0ryy	.	[<0D\	-ne-	[<0A\	con-	0a\	-fir-	[0ff#\	-ne-	0ryy	0ryy
=19	=19	=19	=19	=19	=19	=19	=19	=19	=19	=19	=19
0ryy	.	0D\]	.	0A\]	.	0b\	-ma-	0ff#\]	.	0ryy	0ryy
=20	=20	=20	=20	=20	=20	=20	=20	=20	=20	=20	=20
0ryy	.	0E\	-bi-	0G#X/	-fi-	0b\	-tum	0ee\	-bi-	0ryy	0ryy
=21	=21	=21	=21	=21	=21	=21	=21	=21	=21	=21	=21
0ryy	.	2A\	-tur	4A\	-rma-	1a\	est	2cc#X\	-tur	0ryy	0ryy
.	.	.	.	4G#X\	.	.	.	.	.	.	.
!	!	!LO:TX:t=P:problem=kreska pseudotaktowa	!	!	!	!	!	!	!	!	!
.	.	2A\	non	4A\	.	.	.	2cc#\	non	.	.
.	.	.	.	4B\	-tum	.	.	.	.	.	.
!	!	!	!	!	!	!LO:LB:g=original	!	!	!	!	!
!	!	!	!	!	!	!LO:TX:b:t=1	!	!	!	!	!
.	.	2A\	com-	1c#X\	est	1r	.	2cc#\	com-	.	.
.	.	2A\	-mo-	.	.	.	.	2cc#\	-mo-	.	.
!	!	!LO:LB:g=original	!	!	!	!	!	!LO:LB:g=original	!	!	!
=22	=22	=22	=22	=22	=22	=22	=22	=22	=22	=22	=22
!	!	!	!	!LO:TX:b:t=2	!	!	!	!	!	!	!
0ryy	.	2.E\	-ne-	0r	.	2r	.	2.b\	-ne-	0ryy	0ryy
.	.	.	.	.	.	2g#X\	non	.	.	.	.
.	.	4E\	-bi-	.	.	.	.	4b\	-bi-	.	.
.	.	1E\	-tu	.	.	2g#\	com-	1b\	-tur	.	.
.	.	.	.	.	.	2g#\	-mo-	.	.	.	.
!!linebreak:original
!	!	!	!	!LO:LB:g=original	!	!	!	!	!	!	!
=23	=23	=23	=23	=23	=23	=23	=23	=23	=23	=23	=23
!	!	!	!	!	!	!	!	!LO:TX:b:t=2	!	!	!
4B\	.	0B\	do-	[<0B\	do-	2.f#\	-ne-	0r	.	0ryy	0ryy
4c#X\	.	.	.	.	.	.	.	.	.	.	.
4d\	.	.	.	.	.	.	.	.	.	.	.
4c#\	.	.	.	.	.	4f#\	-bi-	.	.	.	.
4B\	.	.	.	.	.	1f#\	-tur	.	.	.	.
4A\	.	.	.	.	.	.	.	.	.	.	.
4G\	.	.	.	.	.	.	.	.	.	.	.
4F#\	.	.	.	.	.	.	.	.	.	.	.
=24	=24	=24	=24	=24	=24	=24	=24	=24	=24	=24	=24
4G\	.	0Gn\	-nec	0B\]	.	0g\	do-	0b\	do-	0ryy	0ryy
4A\	.	.	.	.	.	.	.	.	.	.	.
4B\	.	.	.	.	.	.	.	.	.	.	.
4A\	.	.	.	.	.	.	.	.	.	.	.
4G\	.	.	.	.	.	.	.	.	.	.	.
4F#\	.	.	.	.	.	.	.	.	.	.	.
4E\	.	.	.	.	.	.	.	.	.	.	.
4D\	.	.	.	.	.	.	.	.	.	.	.
!	!	!	!	!	!	!LO:LB:g=original	!	!	!	!	!
=25	=25	=25	=25	=25	=25	=25	=25	=25	=25	=25	=25
4E\	.	0E\	de-	0c#X\	.	0g\	-nec	0b\	-nec	0ryy	0ryy
4D\	.	.	.	.	.	.	.	.	.	.	.
4C#X\	.	.	.	.	.	.	.	.	.	.	.
4D\	.	.	.	.	.	.	.	.	.	.	.
!LO:LB:g=original	!	!	!	!	!	!	!	!	!	!	!
4E\	.	.	.	.	.	.	.	.	.	.	.
4D\	.	.	.	.	.	.	.	.	.	.	.
4E\	.	.	.	.	.	.	.	.	.	.	.
4C#X\	.	.	.	.	.	.	.	.	.	.	.
!	!	!LO:LB:g=original	!	!	!	!	!	!	!	!	!
=26	=26	=26	=26	=26	=26	=26	=26	=26	=26	=26	=26
4F#\	.	1.F#\	-spi-	1.c#X\	-nec	0f#\	des-	0a#X\	de-	0ryy	0ryy
4E\	.	.	.	.	.	.	.	.	.	.	.
4F#\	.	.	.	.	.	.	.	.	.	.	.
4G#X\	.	.	.	.	.	.	.	.	.	.	.
4A#X\	.	.	.	.	.	.	.	.	.	.	.
4G#X\	.	.	.	.	.	.	.	.	.	.	.
4A#X\	.	2F#\	-ci-	2c#\	de-	.	.	.	.	.	.
4F#\	.	.	.	.	.	.	.	.	.	.	.
!	!	!	!	!LO:PB:g=original	!	!	!	!LO:PB:g=original	!	!	!
=27	=27	=27	=27	=27	=27	=27	=27	=27	=27	=27	=27
*	*below	*	*	*	*	*	*	*	*	*	*
!	!	!LO:TX:t=P:problem=kreska pseudotaktowa	!	!	!	!	!	!	!	!	!
2B\	n3	1B\	-at	2.d\	-spi-	2.f#\	-pi-	2.b\	-spi-	0ryy	0ryy
2BB/	.	.	.	.	.	.	.	.	.	.	.
.	.	.	.	4c\	-ci-	4e\	-ci-	4cc\	-ci-	.	.
!	!	!LO:TX:b:t=1	!	!	!	!	!	!	!	!	!
2BB/	.	1r	.	1B\	-at	1d\	-at	1dd\	-at	.	.
2BB/	.	.	.	.	.	.	.	.	.	.	.
!LO:LB:g=original	!	!	!	!	!	!	!	!	!	!	!
=28	=28	=28	=28	=28	=28	=28	=28	=28	=28	=28	=28
!	!	!	!	!	!	!LO:TX:b:t=1	!	!LO:TX:b:t=1	!	!	!
*	*above	*	*	*	*	*	*	*	*	*	*
!	!	!	!	!	!	!	!	!LO:TX:t=P:problem=kreska pseudotaktowa	!	!	!
0BB/	#3	2.B\	i-	2.d#X\	i-	1r	.	1r	.	0ryy	0ryy
.	.	4c#X\	-ni-	4e\	-ni-	.	.	.	.	.	.
.	.	4d#X\	-mi-	4f#\	-mi-	2f#\	i-	2b\	i-	.	.
.	.	4c#X\	.	4e\	.	.	.	.	.	.	.
.	.	4d#X\	.	4f#\	.	2f#\	-ni-	2b\	-ni-	.	.
.	.	4B\	-cos	4d#X\	-cos	.	.	.	.	.	.
!	!	!LO:LB:g=original	!	!	!	!LO:LB:g=original	!	!	!	!	!
=29	=29	=29	=29	=29	=29	=29	=29	=29	=29	=29	=29
*	*below	*	*	*	*	*	*	*	*	*	*
2E\	n3	2e\	su-	2e\	su-	2g\	-mi-	2b\	-mi-	0ryy	0ryy
2B\	#3	2B\	-os	2d#X\	-os	2b\	-cos	2b\	-cos	.	.
!	!	!	!	!LO:LB:g=original	!	!	!	!	!	!	!
2cn\	.	2cn\	i-	2e\	i-	2g\	i-	2ee\	i-	.	.
2A\	n3	2A\	-ni-	2e\	-ni-	2a\	-ni-	2ccn\	-ni-	.	.
!	!	!	!	!	!	!	!	!LO:LB:g=original	!	!	!
=30	=30	=30	=30	=30	=30	=30	=30	=30	=30	=30	=30
2B\	#3	2B\	-mi-	2d#X\	-mi-	2f#\	-mi-	2b\	-mi-	0ryy	0ryy
2E\	n3	2E\	-cos	1e\	-cos	2g\	-cos	2b\	-cos	.	.
*	*above	*	*	*	*	*	*	*	*	*	*
1BB/	4	1BB/	su-	.	.	1f#\	su-	1b\	su-	.	.
.	#3	.	.	2d#X\	su-	.	.	.	.	.	.
=31	=31	=31	=31	=31	=31	=31	=31	=31	=31	=31	=31
4E\	.	1E\	-os	1e\	-os	2g\	-os	2b\	-os	0ryy	0ryy
4E\	.	.	.	.	.	.	.	.	.	.	.
4E\	.	.	.	.	.	2g\	di-	2b\	dis-	.	.
4E\	.	.	.	.	.	.	.	.	.	.	.
!	!	!	!	!	!	!LO:LB:g=original	!	!	!	!	!
4E\	.	2r	.	2r	.	2b\	-sper-	2ee\	-per-	.	.
4E\	.	.	.	.	.	.	.	.	.	.	.
4E\	.	2E\	di-	2g\	di-	2g\	-sit	2b\	-sit	.	.
4E\	.	.	.	.	.	.	.	.	.	.	.
!LO:LB:g=original	!	!LO:LB:g=original	!	!LO:LB:g=original	!	!	!	!	!	!	!
=32	=32	=32	=32	=32	=32	=32	=32	=32	=32	=32	=32
4E\	.	2E\	-sper-	2g\	-sper-	2r	.	2r	.	0ryy	0ryy
4E\	.	.	.	.	.	.	.	.	.	.	.
*	*	*	*	*	*	*	*ij	*	*	*	*
4E\	.	2E\	-sit	2e\	-sit	2g\	di-	2b\	dis-	.	.
4E\	.	.	.	.	.	.	.	.	.	.	.
4E\	.	2r	.	2r	.	2b\	-sper-	2ee\	-per-	.	.
4E\	.	.	.	.	.	.	.	.	.	.	.
*	*	*	*ij	*	*ij	*	*	*	*	*	*
4E\	.	2E\	di-	2e\	di-	2g\	-sit	2b\	-sit	.	.
*	*	*	*	*	*	*	*Xij	*	*	*	*
4E\	.	.	.	.	.	.	.	.	.	.	.
!	!	!	!	!	!	!	!	!LO:LB:g=original	!	!	!
=33	=33	=33	=33	=33	=33	=33	=33	=33	=33	=33	=33
*	*below	*	*	*	*	*	*	*	*	*	*
4A\	n3	2A\	-sper-	2e\	-sper-	2r	.	2r	.	0ryy	0ryy
4A\	.	.	.	.	.	.	.	.	.	.	.
*	*	*	*	*	*	*	*ij	*	*ij	*	*
4A\	.	2A\	-sit	2c\	-sit	2a\	di-	2ccn\	dis-	.	.
*	*	*	*	*	*Xij	*	*	*	*	*	*
4A\	.	.	.	.	.	.	.	.	.	.	.
4A\	.	2r	.	2r	.	2cc\	-sper-	2ee\	-per-	.	.
4A\	.	.	.	.	.	.	.	.	.	.	.
4A\	.	2A\	di-	2c\	dis-	2a\	-sit	2cc\	-sit	.	.
*	*	*	*	*	*	*	*Xij	*	*	*	*
4A\	.	.	.	.	.	.	.	.	.	.	.
!	!	!	!	!	!	!LO:LB:g=original	!	!	!	!	!
=34	=34	=34	=34	=34	=34	=34	=34	=34	=34	=34	=34
*	*above	*	*	*	*	*	*	*	*	*	*
4D\	#	2d\	-sper-	2c\	-per-	2r	.	2r	.	0ryy	0ryy
4D\	.	.	.	.	.	.	.	.	.	.	.
!	!	!	!	!LO:TX:t=P:problem=kreska pseudotaktowa	!	!	!	!	!	!	!
4D\	.	2d\	-sit	2A\	-sit	2f#X\	dis-	2a\	dis-	.	.
*	*	*	*Xij	*	*	*	*	*	*	*	*
4D\	.	.	.	.	.	.	.	.	.	.	.
!LO:LB:g=original	!	!LO:LB:g=original	!	!LO:LB:g=original	!	!	!	!	!	!	!
!	!	!	!	!LO:TX:b:t=3	!	!	!	!	!	!	!
4D\	.	2r	.	0r	.	2a\	-per-	2dd\	-per-	.	.
4D\	.	.	.	.	.	.	.	.	.	.	.
4D\	.	2D\	dis-	.	.	2f#\	-sit	2a\	-sit	.	.
*	*	*	*	*	*	*	*	*	*Xij	*	*
4D\	.	.	.	.	.	.	.	.	.	.	.
=35	=35	=35	=35	=35	=35	=35	=35	=35	=35	=35	=35
!	!	!	!	!	!	!	!	!LO:TX:b:t=1	!	!	!
!	!	!	!	!	!	!	!	!LO:TX:t=P:problem=kreska pseudotaktowa	!	!	!
2G\	.	2G\	-per-	.	.	1r	.	1r	.	0ryy	0ryy
2GG/	.	2G\	-sit	.	.	.	.	.	.	.	.
1G\	.	1G\	de-	1r	.	1d\	de-	1b\	de-	.	.
!	!	!	!	!	!	!	!	!LO:LB:g=original	!	!	!
=36	=36	=36	=36	=36	=36	=36	=36	=36	=36	=36	=36
1F#X\	6	1F#X\	-dit	2r	.	2d\	-dit	2a\	-dit	0ryy	0ryy
*	*	*	*	*	*ij	*	*	*	*	*	*
.	.	.	.	2d\	di-	2d\	pau-	2a\	pau-	.	.
1Fn\	.	1Fn\	pau-	2fn\	-sper-	1d\	.	1b\	-pe-	.	.
.	.	.	.	2d\	-sit	.	.	.	.	.	.
!	!	!LO:LB:g=original	!	!	!	!LO:LB:g=original	!	!	!	!	!
=37	=37	=37	=37	=37	=37	=37	=37	=37	=37	=37	=37
1E\	n6	4E\	-pe-	2r	.	4e\	-pe-	4ccn\	.	0ryy	0ryy
.	.	4E\	-ri-	.	.	4fn\	-ri-	4b\	-ri-	.	.
!	!	!LO:TX:t=P:problem=kreska pseudotaktowa	!	!	!	!LO:TX:t=P:problem=kreska pseudotaktowa	!	!	!	!	!
.	.	2E\	-bus	2e\	di-	2g\	-bus	2b\	-bus	.	.
*	*below	*	*	*	*	*	*	*	*	*	*
1A\	n3	1A\	iu-	2e\	-sper-	1e\	iu-	1cc\	iu-	.	.
.	.	.	.	2c\	-sit	.	.	.	.	.	.
*	*	*	*	*	*Xij	*	*	*	*	*	*
=38	=38	=38	=38	=38	=38	=38	=38	=38	=38	=38	=38
*	*above	*	*	*	*	*	*	*	*	*	*
1G#X\	6	2G#X\	-sti-	2r	.	2e\	-sti-	2b\	-sti-	0ryy	0ryy
.	.	4G#\	-ti-	2B\	de-	4e\	-ti-	4b\	-a	.	.
!	!	!LO:TX:t=P:problem=kreska pseudotaktowa	!	!	!	!	!	!	!	!	!
.	.	4G#\	-a	.	.	4e\	-a	4b\	.	.	.
!LO:PB:g=original	!	!	!	!LO:LB:g=original	!	!	!	!	!	!	!
1Gn\	#4	2Gn\	e-	2e\	-dit	2e\	e-	2cc#X\	e-	.	.
.	.	2G\	-ius	2B\	pau-	2e\	-ius	2cc#\	-ius	.	.
!	!	!LO:LB:g=original	!	!	!	!	!	!LO:LB:g=original	!	!	!
=39	=39	=39	=39	=39	=39	=39	=39	=39	=39	=39	=39
4F#\	6	(4F#\	ma-	2.d\	-pe-	4f#X\	ma-	4dd\	ma-	0ryy	0ryy
4E\	#6	4E\)	.	.	.	4g\	.	4cc#X\	.	.	.
2D\	.	2D\	-net	.	.	2a\	-net	2dd\	-net	.	.
.	.	.	.	4e\	-ri-	.	.	.	.	.	.
!	!	!	!	!	!	!LO:LB:g=original	!	!	!	!	!
2r	.	2r	.	2f#X\	-bus	2r	.	2r	.	.	.
2D\	.	2D\	in	2B\	iu-	2f#\	in	2a\	in	.	.
=40	=40	=40	=40	=40	=40	=40	=40	=40	=40	=40	=40
2G\	.	2G\	sae-	2d\	-sti-	2g\	sae-	2b\	sae-	0ryy	0ryy
1D\	.	1D\	.	4d\	-ti-	1f#\	.	1a\	.	.	.
.	.	.	.	4d\	-a	.	.	.	.	.	.
.	.	.	.	2d\	e-	.	.	.	.	.	.
2F#\	.	2F#\	.	2d\	-ius	2a\	.	2dd\	.	.	.
!	!	!	!	!LO:LB:g=original	!	!	!	!	!	!	!
=41	=41	=41	=41	=41	=41	=41	=41	=41	=41	=41	=41
2G\	.	2G\	.	1d\	ma-	2g\	.	2b\	.	0ryy	0ryy
1D\	.	1D\	-cu-	.	.	1f#\	-cu-	1a\	-cu-	.	.
.	.	.	.	2d\	-net	.	.	.	.	.	.
2F#\	.	2F#\	-lum	2d\	in	2a\	-lum	2dd\	-lum	.	.
!LO:LB:g=original	!	!LO:LB:g=original	!	!	!	!	!	!LO:LB:g=original	!	!	!
=42	=42	=42	=42	=42	=42	=42	=42	=42	=42	=42	=42
2G\	.	2G\	sae-	2d\	sae-	2b\	sae-	[<1dd\	sae-	0ryy	0ryy
2F#\	6	2F#\	.	4d\	-cu-	2a\	.	.	.	.	.
.	.	.	.	4d\	-lum	.	.	.	.	.	.
!	!	!	!	!	!	!LO:LB:g=original	!	!	!	!	!
1E\	7	2.E\	.	4.e\	sae-	2.g\	.	2dd\]	.	.	.
.	.	.	.	8e\	-cu-	.	.	.	.	.	.
.	.	.	.	2e\	-li	.	.	2cc#X\	-cu-	.	.
.	#6	4E\	-cu-	.	.	4g\	-cu-	.	.	.	.
!	!	!	!	!LO:LB:g=original	!	!	!	!	!	!	!
=43	=43	=43	=43	=43	=43	=43	=43	=43	=43	=43	=43
!	!	!LO:TX:t=P:problem=kreska pseudotaktowa	!	!	!	!	!	!	!	!	!
2D\	.	1D\	-li	2.A\	cor-	1f#\	-li	1dd\	-li	0ryy	0ryy
2D\	.	.	.	.	.	.	.	.	.	.	.
.	.	.	.	4A\	-nu	.	.	.	.	.	.
!	!	!LO:TX:b:t=2	!	!	!	!	!	!	!	!	!
1G\	.	0r	.	2B\	ei-	2.g\	cor-	2.b\	cor-	.	.
.	.	.	.	2B\	-us	.	.	.	.	.	.
.	.	.	.	.	.	4a\	-nu	4ccn\	-nu	.	.
=44	=44	=44	=44	=44	=44	=44	=44	=44	=44	=44	=44
!	!	!	!	!LO:TX:b:t=1	!	!	!	!	!	!	!
!	!	!	!	!LO:TX:t=P:problem=kreska pseudotaktowa	!	!	!	!	!	!	!
1G\	.	.	.	1r	.	4b\	e-	4dd\	e-	0ryy	0ryy
.	.	.	.	.	.	4cc\	-ius	4ee\	-ius	.	.
.	.	.	.	.	.	4b\	e-	4dd\	e-	.	.
.	.	.	.	.	.	4a\	-xal-	4cc\	-xal-	.	.
2.G\	.	2.G\	cor-	2.B\	e-	1g\	-ta-	1b\	-ta-	.	.
4A\	.	4A\	-nu	4c\	-xal-	.	.	.	.	.	.
!	!	!LO:PB:g=original	!	!	!	!LO:PB:g=original	!	!LO:LB:g=original	!	!	!
=45	=45	=45	=45	=45	=45	=45	=45	=45	=45	=45	=45
4B\	.	4B\	e-	4d\	-ta-	1g\	-bi-	1b\	-bi-	0ryy	0ryy
4cn\	.	4cn\	-ius	4e\	.	.	.	.	.	.	.
4B\	.	4B\	e-	4d\	.	.	.	.	.	.	.
4A\	.	4A\	-xal-	4c\	.	.	.	.	.	.	.
!	!	!	!	!LO:LB:g=original	!	!	!	!	!	!	!
1G\	.	1G\	-ta-	2.B\	.	2.g\	-tur	2.b\	-tur	.	.
.	.	.	.	4A\	-bi-	4a\	in	4cc\	in	.	.
!LO:LB:g=original	!	!	!	!	!	!	!	!	!	!	!
=46	=46	=46	=46	=46	=46	=46	=46	=46	=46	=46	=46
1G\	.	1G\	-bi-	2G\	-tur	4b\	glo-	4dd\	glo-	0ryy	0ryy
.	.	.	.	.	.	4cc\	.	4ee\	.	.	.
.	.	.	.	2r	.	4b\	.	4dd\	.	.	.
!	!	!	!	!	!	!LO:TX:t=P:problem=kreska pseudotaktowa	!	!	!	!	!
.	.	.	.	.	.	4a\	.	4cc\	.	.	.
2.G\	.	2.G\	-tur	2.B\	e-	2.g\	.	2.b\	.	.	.
4A\	.	4A\	in	4c\	-xal-	4a\	.	4a\	-ri-	.	.
=47	=47	=47	=47	=47	=47	=47	=47	=47	=47	=47	=47
4B\	.	4B\	glo-	4d\	-ta-	2b\	-ria	2g\	-a	0ryy	0ryy
4cn\	.	4c\	.	4e\	.	.	.	.	.	.	.
4B\	.	4B\	.	4d\	.	2r	.	2r	.	.	.
4A\	.	4A\	-ri-	4c\	.	.	.	.	.	.	.
!	!	!LO:LB:g=original	!	!	!	!LO:LB:g=original	!	!	!	!	!
!	!	!	!	!	!	!LO:TX:b:t=2	!	!	!	!	!
4G\	.	1G\	-a	1B\	.	0r	.	1g\	e-	.	.
4A\	.	.	.	.	.	.	.	.	.	.	.
4B\	.	.	.	.	.	.	.	.	.	.	.
4A\	.	.	.	.	.	.	.	.	.	.	.
!	!	!	!	!LO:LB:g=original	!	!	!	!LO:LB:g=original	!	!	!
=48	=48	=48	=48	=48	=48	=48	=48	=48	=48	=48	=48
4G\	.	0G\	e-	0B\	.	.	.	1g\	-xal-	0ryy	0ryy
4F#\	.	.	.	.	.	.	.	.	.	.	.
4E\	.	.	.	.	.	.	.	.	.	.	.
4D\	.	.	.	.	.	.	.	.	.	.	.
4E\	.	.	.	.	.	2g\	e-	1g\	-ta-	.	.
4F#\	.	.	.	.	.	.	.	.	.	.	.
4G\	.	.	.	.	.	2g\	-xal-	.	.	.	.
4F#\	.	.	.	.	.	.	.	.	.	.	.
!LO:LB:g=original	!	!	!	!	!	!	!	!	!	!	!
=49	=49	=49	=49	=49	=49	=49	=49	=49	=49	=49	=49
4E\	.	0E\	-xal-	[0e\	.	1g\	-ta-	1g\	-bi-	0ryy	0ryy
4D\	.	.	.	.	.	.	.	.	.	.	.
4Cn\	.	.	.	.	.	.	.	.	.	.	.
4BB\	.	.	.	.	.	.	.	.	.	.	.
4C/	.	.	.	.	.	1g\	-bi-	1a\	-tur	.	.
4BB/	.	.	.	.	.	.	.	.	.	.	.
4AA/	.	.	.	.	.	.	.	.	.	.	.
4BB/	.	.	.	.	.	.	.	.	.	.	.
=50	=50	=50	=50	=50	=50	=50	=50	=50	=50	=50	=50
4C/	.	1C/	-ta-	1e\]	.	1g\	-tur	1a\	e-	0ryy	0ryy
4BB/	.	.	.	.	.	.	.	.	.	.	.
4C/	.	.	.	.	.	.	.	.	.	.	.
!LO:TX:t=P:problem=kreska pseudotaktowa	!	!	!	!	!	!	!	!	!	!	!
4AA/	.	.	.	.	.	.	.	.	.	.	.
4D\	.	1D\	-bi-	1d\	-bi-	2f#\	e-	1a\	-xal-	.	.
4E\	.	.	.	.	.	.	.	.	.	.	.
4F#X\	.	.	.	.	.	2f#\	-xal-	.	.	.	.
4E\	.	.	.	.	.	.	.	.	.	.	.
!!linebreak:original
!	!	!	!	!	!	!LO:LB:g=original	!	!	!	!	!
=51	=51	=51	=51	=51	=51	=51	=51	=51	=51	=51	=51
!	!	!LO:TX:t=P:problem=kreska pseudotaktowa	!	!	!	!	!	!	!	!	!
4D\	.	1D\	-tur	0d\	-tur	1f#\	-ta-	1a\	-ta-	0ryy	0ryy
4C\	.	.	.	.	.	.	.	.	.	.	.
4D\	.	.	.	.	.	.	.	.	.	.	.
4E\	.	.	.	.	.	.	.	.	.	.	.
!LO:LB:g=original	!	!LO:LB:g=original	!	!	!	!	!	!	!	!	!
!	!	!LO:TX:b:t=1	!	!	!	!	!	!	!	!	!
4F#\	.	1r	.	.	.	1f#\	-bi-	1a\	-bi-	.	.
4E\	.	.	.	.	.	.	.	.	.	.	.
4F#\	.	.	.	.	.	.	.	.	.	.	.
4D\	.	.	.	.	.	.	.	.	.	.	.
!	!	!	!	!	!	!	!	!LO:LB:g=original	!	!	!
=52	=52	=52	=52	=52	=52	=52	=52	=52	=52	=52	=52
2G\	.	4B\	e-	2c\	e-	2g\	-tur	1.g\	-tur	0ryy	0ryy
.	.	4c\	.	.	.	.	.	.	.	.	.
1D\	.	1d\	.	1A\	-xal-	1d\	ex-	.	.	.	.
2F#\	.	2A\	-xal-	2d\	.	2f#\	-al-	2dd\	in	.	.
!	!	!	!	!LO:PB:g=original	!	!	!	!	!	!	!
=53	=53	=53	=53	=53	=53	=53	=53	=53	=53	=53	=53
2G\	.	4B\	-ta-	2B\	-ta-	2g\	-ta-	[0dd\	glo-	0ryy	0ryy
.	.	4c\	.	.	.	.	.	.	.	.	.
1D\	.	1d\	.	1A\	.	1d\	.	.	.	.	.
2F#\	.	2A\	-bi-	2d\	-bi-	2f#\	-bi-	.	.	.	.
!	!	!	!	!	!	!LO:LB:g=original	!	!	!	!	!
=54	=54	=54	=54	=54	=54	=54	=54	=54	=54	=54	=54
2G\	.	2G\	-tur	2B\	-tur	2b\	-tur	2dd\]	.	0ryy	0ryy
2C\	.	2c\	in	2c\	in	2a\	in	2ee\	.	.	.
!	!	!LO:LB:g=original	!	!	!	!	!	!	!	!	!
2D\	.	2d\	glo-	2.A\	glo-	2g\	glo-	2dd\	.	.	.
2D\	.	2D\	-ri-	.	.	2f#\	-ri-	2dd\	-ri-	.	.
.	.	.	.	4A\	-ri-	.	.	.	.	.	.
!LO:LB:g=original	!	!	!	!LO:LB:g=original	!	!	!	!	!	!	!
=55	=55	=55	=55	=55	=55	=55	=55	=55	=55	=55	=55
!LO:TX:t=P:problem=kreska pseudotaktowa	!	!	!	!	!	!LO:TX:t=P:problem=kreska pseudotaktowa	!	!	!	!	!
1E\;	.	1E\;<	-a	1G/;	-a	1g\;<	-a	1b\;	-a	0ryy	0ryy
1C/	.	1C/	in	1e\	in	1g\	in	1cc\	in	.	.
!	!	!	!	!	!	!	!	!LO:PB:g=original	!	!	!
=56	=56	=56	=56	=56	=56	=56	=56	=56-	=56	=56	=56
2.D\	.	2.D\	glo-	2.d\	glo-	2.f#\	glo-	2.a\	glo-	0ryy	0ryy
4D\	.	4D\	-ri-	4d\	-ri-	4f#\	-ri-	4a\	-ri-	.	.
1GG/;	.	1GG/;	-a	1d\	-a	1g\;<	-a	1b\	-a	.	.
==	==	==	==	==	==	==	==	==	==	==	==
*-	*-	*-	*-	*-	*-	*-	*-	*-	*-	*-	*-
!!!system-decoration: [(s1,s2)][(s3,s4,s5,s6)][(s7)]
!!!RDF**kern: > = above
!!!RDF**kern: < = below
!!!EED: Leszek Kubiak
!!!EEV: 2021-03-30
!!!ENC: Andrzej Gręziak
!!!END: 2021-03-18
!!!YEC: Copyright 2022 Narodowy Instytut Fryderyka Chopina (https://polishscores.org)
!!!YEM: License CC-BY-4.0 (https://creativecommons.org/licenses/by/4.0)
